icons/op-input-disabled-16.svg

<svg width="16" height="16" viewBox="0 0 16 16" fill="none" xmlns="http://www.w3.org/2000/svg">
<path d="M4.66668 8.00002C4.66668 8.17683 4.59644 8.3464 4.47142 8.47142C4.34639 8.59645 4.17683 8.66669 4.00001 8.66669C3.8232 8.66669 3.65363 8.59645 3.52861 8.47142C3.40359 8.3464 3.33335 8.17683 3.33335 8.00002C3.33335 7.82321 3.40359 7.65364 3.52861 7.52862C3.65363 7.40359 3.8232 7.33335 4.00001 7.33335C4.17683 7.33335 4.34639 7.40359 4.47142 7.52862C4.59644 7.65364 4.66668 7.82321 4.66668 8.00002Z" fill="#1F2328"/>
<path fill-rule="evenodd" clip-rule="evenodd" d="M2.53033 1.46967C2.23744 1.17678 1.76257 1.17678 1.46967 1.46967C1.17678 1.76256 1.17678 2.23744 1.46967 2.53033L1.92933 2.98999C1.73602 3.09254 1.55509 3.22282 1.38902 3.38902C0.933379 3.84431 0.7477 4.41124 0.66329 5.03889C0.583295 5.63371 0.583317 6.38298 0.583345 7.28129V8.71869C0.583317 9.617 0.583295 10.3663 0.66329 10.9612C0.7477 11.5888 0.93338 12.1557 1.38902 12.611C1.84431 13.0667 2.41124 13.2523 3.03888 13.3367C3.63371 13.4167 4.38299 13.4167 5.28132 13.4167H10.7187C11.3247 13.4167 11.8628 13.4167 12.3315 13.3922L13.4697 14.5303C13.7626 14.8232 14.2374 14.8232 14.5303 14.5303C14.8232 14.2374 14.8232 13.7626 14.5303 13.4697L2.53033 1.46967ZM10.856 11.9166L10.3557 11.4164C10.3483 11.4166 10.3408 11.4167 10.3333 11.4167H4.66668C4.25247 11.4167 3.91668 11.0809 3.91668 10.6667C3.91668 10.2525 4.25247 9.91669 4.66668 9.91669H8.85603L6.51006 7.57072C6.61082 7.69042 6.66668 7.84234 6.66668 8.00002C6.66668 8.17683 6.59644 8.3464 6.47142 8.47142C6.34639 8.59645 6.17683 8.66669 6.00001 8.66669C5.8232 8.66669 5.65363 8.59645 5.52861 8.47142C5.40359 8.3464 5.33335 8.17683 5.33335 8.00002C5.33335 7.82321 5.40359 7.65364 5.52861 7.52862C5.65363 7.40359 5.8232 7.33335 6.00001 7.33335C6.15769 7.33335 6.30962 7.38921 6.42932 7.48998L4.51006 5.57071C4.61082 5.69042 4.66668 5.84234 4.66668 6.00002C4.66668 6.17683 4.59644 6.3464 4.47142 6.47142C4.34639 6.59645 4.17683 6.66669 4.00001 6.66669C3.8232 6.66669 3.65363 6.59645 3.52861 6.47142C3.40359 6.3464 3.33335 6.17683 3.33335 6.00002C3.33335 5.82321 3.40359 5.65364 3.52861 5.52862C3.65363 5.40359 3.8232 5.33335 4.00001 5.33335C4.1577 5.33335 4.30962 5.38921 4.42932 5.48998L3.10904 4.1697C2.73878 4.23349 2.56708 4.33215 2.44998 4.44938C2.31984 4.57938 2.21198 4.77727 2.14991 5.23882C2.08494 5.72188 2.08335 6.36948 2.08335 7.33335V8.66669C2.08335 9.63056 2.08494 10.2782 2.14991 10.7612C2.21198 11.2228 2.31923 11.4201 2.44938 11.5501C2.57937 11.6802 2.77727 11.7881 3.23881 11.8501C3.72187 11.9151 4.36948 11.9167 5.33335 11.9167H10.6667C10.7312 11.9167 10.7943 11.9167 10.856 11.9166Z" fill="#1F2328"/>
<path d="M13.55 11.5507C13.6802 11.4207 13.7881 11.2228 13.8501 10.7612C13.9151 10.2782 13.9167 9.63056 13.9167 8.66669V7.33335C13.9167 6.36948 13.9151 5.72188 13.8501 5.23882C13.7881 4.77727 13.6808 4.57998 13.5507 4.44999C13.4207 4.31984 13.2228 4.21198 12.7612 4.14991C12.2782 4.08495 11.6306 4.08335 10.6667 4.08335H6.23547L4.70754 2.58335C4.91278 2.57797 4.93042 2.57853 4.98022 2.58011C5.02056 2.58139 5.08201 2.58335 5.28135 2.58335H10.7187C11.617 2.58332 12.3663 2.5833 12.9611 2.6633C13.5888 2.74771 14.1557 2.93339 14.611 3.38903C15.0667 3.84432 15.2523 4.41124 15.3367 5.03889C15.4167 5.63371 15.4167 6.38298 15.4167 7.28129V8.71871C15.4167 9.61703 15.4167 10.3663 15.3367 10.9612C15.2523 11.5889 15.0666 12.156 14.6107 12.6113L13.55 11.5507Z" fill="#1F2328"/>
<path d="M10.6667 6.00002C10.6667 6.17683 10.5964 6.3464 10.4714 6.47142C10.3464 6.59645 10.1768 6.66669 10 6.66669C9.8232 6.66669 9.65363 6.59645 9.52861 6.47142C9.40359 6.3464 9.33335 6.17683 9.33335 6.00002C9.33335 5.82321 9.40359 5.65364 9.52861 5.52862C9.65363 5.40359 9.8232 5.33335 10 5.33335C10.1768 5.33335 10.3464 5.40359 10.4714 5.52862C10.5964 5.65364 10.6667 5.82321 10.6667 6.00002Z" fill="#1F2328"/>
<path d="M12.6667 6.00002C12.6667 6.17683 12.5964 6.3464 12.4714 6.47142C12.3464 6.59645 12.1768 6.66669 12 6.66669C11.8232 6.66669 11.6536 6.59645 11.5286 6.47142C11.4036 6.3464 11.3333 6.17683 11.3333 6.00002C11.3333 5.82321 11.4036 5.65364 11.5286 5.52862C11.6536 5.40359 11.8232 5.33335 12 5.33335C12.1768 5.33335 12.3464 5.40359 12.4714 5.52862C12.5964 5.65364 12.6667 5.82321 12.6667 6.00002Z" fill="#1F2328"/>
<path d="M12.6667 8.00002C12.6667 8.17683 12.5964 8.3464 12.4714 8.47142C12.3464 8.59645 12.1768 8.66669 12 8.66669C11.8232 8.66669 11.6536 8.59645 11.5286 8.47142C11.4036 8.3464 11.3333 8.17683 11.3333 8.00002C11.3333 7.82321 11.4036 7.65364 11.5286 7.52862C11.6536 7.40359 11.8232 7.33335 12 7.33335C12.1768 7.33335 12.3464 7.40359 12.4714 7.52862C12.5964 7.65364 12.6667 7.82321 12.6667 8.00002Z" fill="#1F2328"/>
<path d="M8.47141 6.47142C8.59643 6.3464 8.66667 6.17683 8.66667 6.00002C8.66667 5.82321 8.59643 5.65364 8.47141 5.52861C8.34638 5.40359 8.17681 5.33335 8 5.33335C7.82319 5.33335 7.65362 5.40359 7.5286 5.52861L8.47141 6.47142Z" fill="#1F2328"/>
<path d="M10.4714 8.47142C10.5964 8.3464 10.6667 8.17683 10.6667 8.00002C10.6667 7.82321 10.5964 7.65364 10.4714 7.52861C10.3464 7.40359 10.1768 7.33335 10 7.33335C9.82319 7.33335 9.65362 7.40359 9.5286 7.52861L10.4714 8.47142Z" fill="#1F2328"/>
</svg>

<svg xmlns="http://www.w3.org/2000/svg" width="16" height="16" viewBox="0 0 16 16"><path d="M4.667 8a.666.666 0 1 1-1.332-.002A.666.666 0 0 1 4.667 8Z"/><path d="m2.53 1.47 12 12a.749.749 0 1 1-1.06 1.06l-1.138-1.138c-.469.025-1.007.025-1.613.025H5.281c-.898 0-1.647 0-2.242-.08-.628-.085-1.195-.27-1.65-.726-.456-.455-.641-1.022-.726-1.65-.08-.595-.08-1.344-.08-2.242V7.281c0-.898 0-1.647.08-2.242.085-.628.27-1.195.726-1.65.166-.166.347-.296.54-.399l-.459-.46a.749.749 0 1 1 1.06-1.06Zm8.326 10.447-.5-.501a.177.177 0 0 1-.023.001H4.667a.75.75 0 1 1 0-1.5h4.189L6.51 7.571a.663.663 0 0 1-.039.9.666.666 0 1 1-.042-.981L4.51 5.571a.663.663 0 0 1-.039.9.666.666 0 1 1-.042-.981l-1.32-1.32c-.37.063-.542.162-.659.279-.13.13-.238.328-.3.79-.065.483-.067 1.13-.067 2.094v1.334c0 .964.002 1.611.067 2.094.062.462.169.659.299.789.13.13.328.238.79.3.483.065 1.13.067 2.094.067h5.523Zm2.694-.366c.13-.13.238-.328.3-.79.065-.483.067-1.13.067-2.094V7.333c0-.964-.002-1.611-.067-2.094-.062-.462-.169-.659-.299-.789-.13-.13-.328-.238-.79-.3-.483-.065-1.13-.067-2.094-.067H6.235l-1.527-1.5c.205-.005.222-.004.272-.003.041.001.102.003.301.003h5.438c.898 0 1.647 0 2.242.08.628.085 1.195.27 1.65.726.456.455.641 1.022.726 1.65.08.595.08 1.344.08 2.242v1.438c0 .898 0 1.647-.08 2.242-.085.628-.27 1.195-.726 1.65l-1.061-1.06Z"/><path d="M10.667 6a.666.666 0 1 1-1.332-.002.666.666 0 0 1 1.332.002Zm2 0a.666.666 0 1 1-1.332-.002.666.666 0 0 1 1.332.002Zm0 2a.666.666 0 1 1-1.332-.002.666.666 0 0 1 1.332.002ZM8.471 6.471a.666.666 0 1 0-.942-.942l.942.942Zm2 2a.666.666 0 1 0-.942-.942l.942.942Z"/></svg>
